.local/share/icons/Gruvbox-Plus-Dark/panel/16/gmail-tray.svg

<svg xmlns="http://www.w3.org/2000/svg" width="16" height="16" version="1.1">
 <defs>
  <style id="current-color-scheme" type="text/css">
   .ColorScheme-Text { color:#ebdbb2; } .ColorScheme-Highlight { color:#458588; }
  </style>
 </defs>
 <path style="opacity:0.3;fill:currentColor" class="ColorScheme-Text" d="M 3.0410156,1.999627 8.005859,5.5445489 12.96875,1.999627 Z M 3,6.8804864 V 13.999629 H 13 V 6.890252 L 9.169922,9.6265808 c -0.692341,0.4946752 -1.633831,0.4946752 -2.326172,0 z"/>
 <path style="fill:currentColor" class="ColorScheme-Text" d="M 1.0371094,1.9999365 A 0.99917917,0.9987072 0 0 0 0.0019531,3.0409521 C 0.0019147,3.0436755 0,3.0682959 0,3.0682959 v 9.9375011 c 0,0.54653 0.4399575,1.000321 0.9921875,0.994141 H 2 V 4.9393896 L 7.425781,8.812437 a 0.99917917,0.9987072 0 0 0 1.16211,0 L 14,4.9491553 v 9.0507827 h 0.980469 C 15.557469,13.998939 16,13.553563 16,13.015563 V 2.9901709 c 0,-0.00348 -0.0019,-0.0063 -0.002,-0.00977 A 1.0001247,0.99965229 0 0 0 15.92573,2.6327446 c -0.0071,-0.018016 -0.01332,-0.03526 -0.02148,-0.052734 A 1.0001247,0.99965229 0 0 0 15.724609,2.320249 c -0.01676,-0.01774 -0.03278,-0.034302 -0.05078,-0.050781 A 1.0001247,0.99965229 0 0 0 15.431641,2.1073584 c -0.03286,-0.015969 -0.06494,-0.028643 -0.09961,-0.041016 a 1.0001247,0.99965229 0 0 0 -0.279297,-0.05664 c -0.01834,-0.00101 -0.03417,-0.00977 -0.05273,-0.00977 l -0.0059,0.00977 A 1.0001247,0.99965229 0 0 0 14.417973,2.1932958 L 8.005859,6.773374 1.59375,2.1932959 A 0.99917917,0.9987072 0 0 0 1.0371094,1.9999365 Z"/>
</svg>

<svg width="16" height="16" version="1.1" xmlns="http://www.w3.org/2000/svg">
  <defs>
    <style id="current-color-scheme" type="text/css">.ColorScheme-Text { color:#ebdbb2; } .ColorScheme-Highlight { color:#458588; } .ColorScheme-NeutralText { color:#fe8019; } .ColorScheme-PositiveText { color:#689d6a; } .ColorScheme-NegativeText { color:#fb4934; }</style>
  </defs>
  <path class="ColorScheme-Text" d="m3.041 2 4.965 3.545 4.963-3.545zm-0.04102 4.881v7.119h10v-7.109l-3.83 2.736c-0.6923 0.4947-1.634 0.4947-2.326 0z" fill="currentColor" opacity=".3"/>
  <path class="ColorScheme-Text" d="m1.037 2a0.9992 0.9987 0 0 0-1.035 1.041c-3.84e-5 0.002723-0.001953 0.02734-0.001953 0.02734v9.938c0 0.5465 0.44 1 0.9922 0.9941h1.008v-9.061l5.426 3.873a0.9992 0.9987 0 0 0 1.162 0l5.412-3.863v9.051h0.9805c0.577-9.99e-4 1.02-0.4464 1.02-0.9844v-10.03c0-0.00348-0.0019-0.0063-2e-3 -0.00977a1 0.9997 0 0 0-0.07227-0.3477c-0.0071-0.01802-0.01332-0.03526-0.02148-0.05273a1 0.9997 0 0 0-0.1796-0.2598c-0.01676-0.01774-0.03278-0.0343-0.05078-0.05078a1 0.9997 0 0 0-0.2422-0.1621c-0.03286-0.01597-0.06494-0.02864-0.09961-0.04102a1 0.9997 0 0 0-0.2793-0.05664c-0.01834-0.00101-0.03417-0.00977-0.05273-0.00977l-0.0059 0.00977a1 0.9997 0 0 0-0.5761 0.1836l-6.412 4.58-6.412-4.58a0.9992 0.9987 0 0 0-0.5566-0.1934z" fill="currentColor"/>
</svg>
